svg/shield_bug_outline.svg

<svg xmlns="http://www.w3.org/2000/svg" viewBox="0 0 24 24"><path d="m9.9 6.6-.8.8 1.2 1.2c-.5.3-.9.8-1.1 1.4H7v1h2v1H7v1h2v1H7v1h2.2c.4 1.2 1.5 2 2.8 2s2.4-.8 2.8-2H17v-1h-2v-1h2v-1h-2v-1h2v-1h-2.2c-.2-.6-.6-1.1-1.1-1.5l1.2-1.2-.7-.7L12.8 8H12c-.2 0-.5 0-.7.1zM11 11h2v1h-2zm0 2h2v1h-2zm10-2c0 5.5-3.8 10.7-9 12-5.2-1.3-9-6.5-9-12V5l9-4 9 4zm-9 10c3.8-1 7-5.5 7-9.8V6.3l-7-3.1-7 3.1v4.9c0 4.3 3.2 8.8 7 9.8"/></svg>

<?xml version="1.0" encoding="UTF-8"?><!DOCTYPE svg PUBLIC "-//W3C//DTD SVG 1.1//EN" "http://www.w3.org/Graphics/SVG/1.1/DTD/svg11.dtd"><svg xmlns="http://www.w3.org/2000/svg" xmlns:xlink="http://www.w3.org/1999/xlink" version="1.1" id="mdi-shield-bug-outline" width="24" height="24" viewBox="0 0 24 24"><path d="M9.9 6.6L9.1 7.4L10.3 8.6C9.8 8.9 9.4 9.4 9.2 10H7V11H9V12H7V13H9V14H7V15H9.2C9.6 16.2 10.7 17 12 17S14.4 16.2 14.8 15H17V14H15V13H17V12H15V11H17V10H14.8C14.6 9.4 14.2 8.9 13.7 8.5L14.9 7.3L14.2 6.6L12.8 8H12C11.8 8 11.5 8 11.3 8.1L9.9 6.6M11 11H13V12H11V11M11 13H13V14H11V13M21 11C21 16.5 17.2 21.7 12 23C6.8 21.7 3 16.5 3 11V5L12 1L21 5V11M12 21C15.8 20 19 15.5 19 11.2V6.3L12 3.2L5 6.3V11.2C5 15.5 8.2 20 12 21Z" /></svg>
